icon/gi/abstract-058.svg

<svg xmlns="http://www.w3.org/2000/svg" viewBox="0 0 512 512" height="1em" width="1em">
  <path d="M0 0h512v512H0z"/>
  <path fill="#fff" d="m21,21v228.5688h168.1719v115.5594h-21.0031v-94.1469h-147.1688v220.0188h470v-220.0188h-147.1687v94.1469h-21.0032v-115.5594h168.1719v-228.5688h-35.1031v145.1125h-108.8344v-145.1125h-36.5719v145.1125h-108.8343v-145.1125h-36.7188v145.1125h-108.8344v-145.1125z"/>
</svg>

<svg xmlns="http://www.w3.org/2000/svg" viewBox="0 0 512 512"><path d="M0 0h512v512H0z"/><path fill="#fff" d="M21 21v228.569h168.172v115.56h-21.003V270.98H21v220.02h470V270.98H343.831v94.147h-21.003v-115.56H491V21h-35.103v145.113H347.063V21H310.49v145.113H201.656V21h-36.719v145.113H56.103V21z"/></svg>
